X:25
T:Prince of Wales's Birthday, The
M:C|
L:1/8
B:Thompson's Compleat Collection of 200 Favourite Country Dances, vol. 1 (London, 1757)
Z:Transcribed and edited by Fynnian Titford-Mock, 2007
Z:abc's:AK/Fiddler's Companion
K:Bb
f|(Bd)(fb) "tr"g2 fb|"tr"e2 db "tr"c2 Bb|(Bd)(fb) "tr"g2 fb|e2 d2 c3:|
|:c|FAce "tr"d2 Bf|Bdf_a "tr"g2 f=a|bg "tr"g2 af "tr"f2|gedc B3:|

